src/img/sbb/circle_information_11_large.svg

<svg xmlns="http://www.w3.org/2000/svg" width="48" height="48" viewBox="0 0 48 48">
  <path fill="none" stroke="#000" stroke-width="2" d="M41,24.0004 C41,33.4924 33.492,41.0004 24,41.0004 C14.508,41.0004 7,33.4924 7,24.0004 C7,14.5064 14.508,7.0004 24,7.0004 C33.492,7.0004 41,14.5064 41,24.0004 Z M24.96,15.9994 L24.96,11.9994 M29.961,32.98 L19.961,32.98 M24.96,32.98 L24.96,20.98 L20,20.98"/>
</svg>

<svg xmlns="http://www.w3.org/2000/svg" viewBox="0 0 48 48"><path fill="none" stroke="#000" stroke-width="2" d="M41 24c0 9.492-7.508 17-17 17S7 33.492 7 24c0-9.494 7.508-17 17-17s17 7.506 17 17zm-16.04-8v-4m5.001 20.98h-10m4.999 0v-12H20"/></svg>
